Surfn/scalable/status/scalable/nm-signal-100-secure.svg

<?xml version="1.0" ?><!-- Created with Inkscape (http://www.inkscape.org/) --><svg height="22" id="svg3229" version="1.0" width="22" xmlns="http://www.w3.org/2000/svg" xmlns:cc="http://creativecommons.org/ns#" xmlns:dc="http://purl.org/dc/elements/1.1/" xmlns:rdf="http://www.w3.org/1999/02/22-rdf-syntax-ns#" xmlns:svg="http://www.w3.org/2000/svg">
  <metadata id="metadata9">
    <rdf:RDF>
      <cc:Work rdf:about="">
        <dc:format>image/svg+xml</dc:format>
        <dc:type rdf:resource="http://purl.org/dc/dcmitype/StillImage"/>
        <dc:title/>
      </cc:Work>
    </rdf:RDF>
  </metadata>
  <defs id="defs3231"/>
  <path d="m 1.85,10.144409 c 0,0 2.8977535,-3.294409 9.131958,-3.294409 6.203557,0 9.168042,3.3 9.168042,3.3" id="path3683-5" style="opacity:0.3;fill:none;stroke:#000000;stroke-width:1.70000005;stroke-linecap:round;stroke-linejoin:miter;stroke-miterlimit:4;stroke-opacity:1;stroke-dasharray:none;stroke-dashoffset:0;marker:none;visibility:visible;display:inline;overflow:visible;enable-background:accumulate"/>
  <path d="m 1.85,9.144409 c 0,0 2.8977535,-3.2944092 9.131958,-3.2944092 C 17.185515,5.8499998 20.15,9.15 20.15,9.15" id="path3683" style="fill:none;stroke:#dfdbd2;stroke-width:1.70000005;stroke-linecap:round;stroke-linejoin:miter;stroke-miterlimit:4;stroke-opacity:1;stroke-dasharray:none;stroke-dashoffset:0;marker:none;visibility:visible;display:inline;overflow:visible;enable-background:accumulate"/>
  <path d="m 4.3499998,12.752608 c 0,0 2.1468917,-2.21577 6.6500012,-2.136936 4.54046,0.07949 6.649999,2.172525 6.649999,2.172525" id="path3681-0" style="opacity:0.3;fill:none;stroke:#000000;stroke-width:1.69999993;stroke-linecap:round;stroke-linejoin:miter;stroke-miterlimit:4;stroke-opacity:1;stroke-dasharray:none;stroke-dashoffset:0;marker:none;visibility:visible;display:inline;overflow:visible;enable-background:accumulate"/>
  <path d="m 4.3499998,11.752608 c 0,0 2.1468917,-2.215771 6.6500012,-2.136937 4.54046,0.07949 6.649999,2.172526 6.649999,2.172526" id="path3681" style="fill:none;stroke:#dfdbd2;stroke-width:1.69999993;stroke-linecap:round;stroke-linejoin:miter;stroke-miterlimit:4;stroke-opacity:1;stroke-dasharray:none;stroke-dashoffset:0;marker:none;visibility:visible;display:inline;overflow:visible;enable-background:accumulate"/>
  <path d="m 7.3499999,15.191046 c 0,0 0.9668981,-1.071983 3.5986811,-1.092208 2.598976,-0.01997 3.701319,1.092208 3.701319,1.092208" id="path3209-5" style="opacity:0.3;fill:none;stroke:#000000;stroke-width:1.69999993;stroke-linecap:round;stroke-linejoin:miter;stroke-miterlimit:4;stroke-opacity:1;stroke-dasharray:none;stroke-dashoffset:0;marker:none;visibility:visible;display:inline;overflow:visible;enable-background:accumulate"/>
  <path d="m 7.3499999,14.191046 c 0,0 0.9668981,-1.071983 3.5986811,-1.092208 2.598976,-0.01997 3.701319,1.092208 3.701319,1.092208" id="path3209" style="fill:none;stroke:#dfdbd2;stroke-width:1.69999993;stroke-linecap:round;stroke-linejoin:miter;stroke-miterlimit:4;stroke-opacity:1;stroke-dasharray:none;stroke-dashoffset:0;marker:none;visibility:visible;display:inline;overflow:visible;enable-background:accumulate"/>
  <path d="m 10.145105,17 c -0.471902,0 -0.854895,0.298667 -0.854895,0.666667 0,0.136758 0.0529,0.263941 0.143587,0.369778 0,0 1.007602,0.801438 1.007602,0.801438 C 10.591259,18.938886 10.786534,19 11.000001,19 c 0.253303,0 0.480993,-0.08605 0.63758,-0.222693 0,0 0.900909,-0.710397 0.900909,-0.710397 0.107541,-0.111488 0.1713,-0.250094 0.1713,-0.400243 0,-0.368 -0.382993,-0.666667 -0.854895,-0.666667 0,0 -1.70979,0 -1.70979,0 z" id="path3196-5-7" style="opacity:0.3;fill:#000000;fill-opacity:1;fill-rule:evenodd;stroke:none;stroke-width:1.69999993;marker:none;visibility:visible;display:inline;overflow:visible;enable-background:accumulate"/>
  <path d="m 10.145105,16 c -0.471902,0 -0.854895,0.298667 -0.854895,0.666667 0,0.136758 0.0529,0.263941 0.143587,0.369778 0,0 1.007602,0.801438 1.007602,0.801438 C 10.591259,17.938886 10.786534,18 11.000001,18 c 0.253303,0 0.480993,-0.08605 0.63758,-0.222693 0,0 0.900909,-0.710397 0.900909,-0.710397 0.107541,-0.111488 0.1713,-0.250094 0.1713,-0.400243 0,-0.368 -0.382993,-0.666667 -0.854895,-0.666667 0,0 -1.70979,0 -1.70979,0 z" id="path3196-5" style="fill:#dfdbd2;fill-opacity:1;fill-rule:evenodd;stroke:none;stroke-width:1.69999993;marker:none;visibility:visible;display:inline;overflow:visible;enable-background:accumulate"/>

<!-- imported from 'ubuntu-mono-dark/status/22/nm-vpn-lock.svg' -->
<g id="svg3215">
  <metadata id="metadata12">
    <rdf:RDF>
      <cc:Work rdf:about="">
        <dc:format>image/svg+xml</dc:format>
        <dc:type rdf:resource="http://purl.org/dc/dcmitype/StillImage"/>
        <dc:title/>
      </cc:Work>
    </rdf:RDF>
  </metadata>
  <sodipodi:namedview bordercolor="#666666" borderopacity="1.0" gridtolerance="10.0" guidetolerance="10.0" id="base" inkscape:current-layer="svg3215" inkscape:cx="-2.6506024" inkscape:cy="13.012048" inkscape:pageopacity="0.0" inkscape:pageshadow="2" inkscape:window-height="753" inkscape:window-maximized="1" inkscape:window-width="1280" inkscape:window-x="0" inkscape:window-y="24" inkscape:zoom="10.375" objecttolerance="10.0" pagecolor="#ffffff" showgrid="false"/>
  <defs id="defs3217"/>
  <path d="M 19,14 C 17.892,14 17,14.910763 17,16.03125 L 17,17 C 16.446,17 16,17.446 16,18 L 16,21 C 16,21.554 16.446,22 17,22 L 21,22 C 21.554,22 22,21.554 22,21 L 22,18 C 22,17.446 21.554,17 21,17 L 21,16.03125 C 21,14.910764 20.108,14 19,14 z M 19,15 C 19.554,15 20,15.442363 20,16 L 20,17 L 18,17 L 18,16 C 18,15.442363 18.446,15 19,15 z" id="path2441" style="opacity:0.3;fill:#000000;fill-opacity:1;fill-rule:nonzero;stroke:none;stroke-width:1;stroke-linecap:butt;stroke-linejoin:miter;marker:none;marker-start:none;marker-mid:none;marker-end:none;stroke-miterlimit:4;stroke-dasharray:none;stroke-dashoffset:0;stroke-opacity:1;visibility:visible;display:inline;overflow:visible;enable-background:accumulate"/>
  <path d="M 19,13 C 17.892,13 17,13.910763 17,15.03125 L 17,16 C 16.446,16 16,16.446 16,17 L 16,20 C 16,20.554 16.446,21 17,21 L 21,21 C 21.554,21 22,20.554 22,20 L 22,17 C 22,16.446 21.554,16 21,16 L 21,15.03125 C 21,13.910764 20.108,13 19,13 z M 19,14 C 19.554,14 20,14.442363 20,15 L 20,16 L 18,16 L 18,15 C 18,14.442363 18.446,14 19,14 z" id="rect2822" style="opacity:1;fill:#dfdbd2;fill-opacity:1;fill-rule:nonzero;stroke:none;stroke-width:1;stroke-linecap:butt;stroke-linejoin:miter;marker:none;marker-start:none;marker-mid:none;marker-end:none;stroke-miterlimit:4;stroke-dasharray:none;stroke-dashoffset:0;stroke-opacity:1;visibility:visible;display:inline;overflow:visible;enable-background:accumulate"/>
</g>
</svg>

<svg version="1" viewBox="0 0 22 22" xmlns="http://www.w3.org/2000/svg">
 <path d="m1.85 10.144s2.8978-3.2944 9.132-3.2944c6.2036 0 9.168 3.3 9.168 3.3" style="fill:none;opacity:.3;stroke-linecap:round;stroke-width:1.7;stroke:#000000"/>
 <path d="m1.85 9.1444s2.8978-3.2944 9.132-3.2944c6.2036 0 9.168 3.3 9.168 3.3" style="fill:none;stroke-linecap:round;stroke-width:1.7;stroke:#dfdbd2"/>
 <path d="m4.35 12.753s2.1469-2.2158 6.65-2.1369c4.5405 0.07949 6.65 2.1725 6.65 2.1725" style="fill:none;opacity:.3;stroke-linecap:round;stroke-width:1.7;stroke:#000000"/>
 <path d="m4.35 11.753s2.1469-2.2158 6.65-2.1369c4.5405 0.07949 6.65 2.1725 6.65 2.1725" style="fill:none;stroke-linecap:round;stroke-width:1.7;stroke:#dfdbd2"/>
 <path d="m7.35 15.191s0.9669-1.072 3.5987-1.0922c2.599-0.01997 3.7013 1.0922 3.7013 1.0922" style="fill:none;opacity:.3;stroke-linecap:round;stroke-width:1.7;stroke:#000000"/>
 <path d="m7.35 14.191s0.9669-1.072 3.5987-1.0922c2.599-0.01997 3.7013 1.0922 3.7013 1.0922" style="fill:none;stroke-linecap:round;stroke-width:1.7;stroke:#dfdbd2"/>
 <path d="m10.145 17c-0.4719 0-0.8549 0.29867-0.8549 0.66667 0 0.13676 0.0529 0.26394 0.14359 0.36978l1.0076 0.80144c0.14986 0.101 0.34514 0.16212 0.5586 0.16212 0.2533 0 0.48099-0.08605 0.63758-0.22269l0.90091-0.7104c0.10754-0.11149 0.1713-0.25009 0.1713-0.40024 0-0.368-0.38299-0.66667-0.8549-0.66667h-1.7098z" style="fill-rule:evenodd;fill:#000000;opacity:.3"/>
 <path d="m10.145 16c-0.4719 0-0.8549 0.29867-0.8549 0.66667 0 0.13676 0.0529 0.26394 0.14359 0.36978l1.0076 0.80144c0.14986 0.101 0.34514 0.16212 0.5586 0.16212 0.2533 0 0.48099-0.08605 0.63758-0.22269l0.90091-0.7104c0.10754-0.11149 0.1713-0.25009 0.1713-0.40024 0-0.368-0.38299-0.66667-0.8549-0.66667h-1.7098z" style="fill-rule:evenodd;fill:#dfdbd2"/>
 <path d="m19 14c-1.108 0-2 0.91076-2 2.0312v0.96875c-0.554 0-1 0.446-1 1v3c0 0.554 0.446 1 1 1h4c0.554 0 1-0.446 1-1v-3c0-0.554-0.446-1-1-1v-0.96875c0-1.1205-0.892-2.0312-2-2.0312zm0 1c0.554 0 1 0.44236 1 1v1h-2v-1c0-0.55764 0.446-1 1-1z" style="fill:#000000;opacity:.3"/>
 <path d="m19 13c-1.108 0-2 0.91076-2 2.0312v0.96875c-0.554 0-1 0.446-1 1v3c0 0.554 0.446 1 1 1h4c0.554 0 1-0.446 1-1v-3c0-0.554-0.446-1-1-1v-0.96875c0-1.1205-0.892-2.0312-2-2.0312zm0 1c0.554 0 1 0.44236 1 1v1h-2v-1c0-0.55764 0.446-1 1-1z" style="fill:#dfdbd2"/>
</svg>
